Radio/Source/NRK Jazz.svg

<svg id="a" enable-background="new 0 0 143.5 24.3" version="1.1" viewBox="0 0 143.5 24.3" xml:space="preserve" xmlns="http://www.w3.org/2000/svg">
<style type="text/css">
	.st0{fill:#FFFFFF;}
</style>
		<polygon class="st0" points="0 0.7 0 22.2 0 24 8.3 24 8.3 0.7"/>
		<rect class="st0" x="23.5" y=".7" width="8.2" height="23.3"/>
		<rect class="st0" x="42" y=".7" width="8.2" height="23.3"/>
			<path class="st0" d="m36.9 0.2c-2.6 0-4.6 2.1-4.6 4.6 0 2.6 2.1 4.7 4.6 4.7 2.6 0 4.6-2.1 4.6-4.7 0-2.5-2.1-4.6-4.6-4.6"/>
			<path class="st0" d="m60.5 13.4c-0.5-0.8-0.5-1.3-0.1-2.1l6.6-10.6h-9s-5.4 8.8-6.2 10.1c-0.7 1.2-0.7 2 0 3.2 0.7 1.3 6.1 10 6.1 10h9c0.1 0-6.3-10.4-6.4-10.6"/>
			<path class="st0" d="M18.6,4.4c-0.4-2.1-2.3-3.7-4.6-3.7l-5.3,0L14,24h9L18.6,4.4z"/>
<path class="st0" d="m82.6 18.9c0 3.8-1.6 5.5-5.1 5.5-1.4 0-3.3-0.3-4.5-0.9l0.6-2c1.1 0.5 2.2 0.7 3.5 0.7 2.1 0 3-0.9 3-3.9v-17.6h2.5v18.2z"/>
<path class="st0" d="m96.6 0.7 8.5 23.3h-2.7l-2.5-6.7h-9.4l-2.3 6.7h-2.7l8.5-23.3h2.6zm2.7 14.4-4-11.6-4 11.6h8z"/>
<path class="st0" d="M107.5,22.4l12.8-19.4h-11.9V0.7H124v1.1l-13.2,20h13.2V24h-16.5V22.4z"/>
<path class="st0" d="M126.9,22.4l12.8-19.4h-11.9V0.7h15.6v1.1l-13.2,20h13.2V24h-16.5V22.4z"/>
</svg>

<?xml version="1.0" encoding="utf-8"?>
<!-- Generator: Adobe Illustrator 22.0.1, SVG Export Plug-In . SVG Version: 6.00 Build 0)  -->
<svg version="1.1" id="Layer_1" xmlns="http://www.w3.org/2000/svg" xmlns:xlink="http://www.w3.org/1999/xlink" x="0px" y="0px"
	 viewBox="0 0 143.5 24.3" style="enable-background:new 0 0 143.5 24.3;" xml:space="preserve">
<style type="text/css">
	.st0{fill:#FFFFFF;}
</style>
<g>
	<g>
		<polygon class="st0" points="0,0.7 0,22.2 0,24 8.3,24 8.3,0.7 		"/>
		<rect x="23.5" y="0.7" class="st0" width="8.2" height="23.3"/>
		<rect x="42" y="0.7" class="st0" width="8.2" height="23.3"/>
		<g>
			<path class="st0" d="M36.9,0.2c-2.6,0-4.6,2.1-4.6,4.6c0,2.6,2.1,4.7,4.6,4.7c2.6,0,4.6-2.1,4.6-4.7C41.5,2.3,39.4,0.2,36.9,0.2"
				/>
			<path class="st0" d="M60.5,13.4c-0.5-0.8-0.5-1.3-0.1-2.1L67,0.7h-9c0,0-5.4,8.8-6.2,10.1c-0.7,1.2-0.7,2,0,3.2
				c0.7,1.3,6.1,10,6.1,10h9C67,24,60.6,13.6,60.5,13.4"/>
			<path class="st0" d="M18.6,4.4c-0.4-2.1-2.3-3.7-4.6-3.7l-5.3,0L14,24h9L18.6,4.4z"/>
		</g>
	</g>
</g>
<path class="st0" d="M82.6,18.9c0,3.8-1.6,5.5-5.1,5.5c-1.4,0-3.3-0.3-4.5-0.9l0.6-2c1.1,0.5,2.2,0.7,3.5,0.7c2.1,0,3-0.9,3-3.9V0.7
	h2.5V18.9z"/>
<path class="st0" d="M96.6,0.7l8.5,23.3h-2.7l-2.5-6.7h-9.4L88.2,24h-2.7L94,0.7H96.6z M99.3,15.1l-4-11.6l-4,11.6H99.3z"/>
<path class="st0" d="M107.5,22.4l12.8-19.4h-11.9V0.7H124v1.1l-13.2,20h13.2V24h-16.5V22.4z"/>
<path class="st0" d="M126.9,22.4l12.8-19.4h-11.9V0.7h15.6v1.1l-13.2,20h13.2V24h-16.5V22.4z"/>
</svg>
